X:417
M:C|
L:1/8
K:B_
g|f2 dB c2 AF|~B2 FD ECCg|f2 dB dcAF|BFGE DB,B,:|
E|DE/F/ FB GBFB|EBDB cCCE|DE/F/ FB GBFB|DFBF DB,B,E|

